X:1
T:Himno de la alegría
T:Himno de la alegría
T:L. van Beethoven
T:Macarena Iniesta
C:L. van Beethoven
Z:Macarena Iniesta
%%score 1 2
L:1/8
M:4/4
K:G
V:1 treble nm="Violín" snm="Vln."
V:2 bass nm="Violonchelo" snm="Vc."
V:1
!f! vB2 B2 c2 d2 | d2 c2 B2 A2 | G2 G2 A2 B2 | (B3 A) A2 z2 | B2 B2 c2 d2 | d2 c2 B2 A2 | %6
 G2 G2 A2 B2 | (A3 G) G2 z2 | vA2 A2 B2 G2 | A2 ((Bc)) B2 G2 | A2 (Bc) B2 A2 | G2 uA2 uD2 vB2- | %12
 B2 B2 c2 d2 | d2 c2 B2 A2 | G2 G2 A2 B2 | (A3 G) G2 z2 | vA2 A2 B2 G2 | A2 (Bc) B2 G2 | %18
 A2 (Bc) B2 A2 | G2 uA2 uD2 vB2- | B2 B2 c2 d2 | d2 c2 B2 A2 | G2 G2 A2 B2 | (A3 G) G2 z2 |] %24
V:2
!f! vG,2 G,2 G,2 G,2 | D,2 D,2 D,2 D,2 | G,2 G,2 G,2 G,2 | (D,3 D,) D,2 z2 | G,2 G,2 G,2 G,2 | %5
 C,2 C,2 C,2 C,2 | D,2 D,2 D,2 D,2 | (D,3 D,) G,,2 z2 | vD,2 D,2 D,2 D,2 | D,2 D,2 D,2 D,2 | %10
 D,2 D,2 ^D,2 B,,2 | E,2 uA,2 u=D,2 (vD,2 | G,2) G,2 G,2 G,2 | C,2 C,2 C,2 C,2 | D,2 D,2 D,2 D,2 | %15
 (D,3 D,) G,,2 z2 | vD,2 D,2 D,2 D,2 | D,2 D,2 D,2 D,2 | D,2 D,2 ^D,2 G,,2 | %19
 E,2 uA,,2 u=D,2 (vD,2 | G,2) G,2 G,2 G,2 | C,2 C,2 C,2 C,2 | D,2 D,2 D,2 D,2 | (D,3 D,) G,,2 z2 |] %24

